X:1
T:Página 13 Harmonice Musices Odhecaton
T:Página 13 Harmonice Musices Odhecaton 
T:Petrucci
T:Editado por: Darío Pérez Díaz
T:Editado por: Darío Pérez Díaz
T:Editado por: Darío Pérez Díaz
C:Petrucci
Z:Editado por: Darío Pérez Díaz
%%score [ 1 2 3 4 ]
L:1/8
M:2/2
K:Bb
V:1 treble nm="Soprano" snm="S."
V:2 alto nm="Alto" snm="A."
V:3 alto2 nm="Tenor" snm="T."
V:4 tenor nm="Bass" snm="B."
V:1
 d8- | d8 | d8 | d8 | c8 | z2 c4 d2- | d4 cB A2 | G2 A4 G2 | B4 AG F2- | F2 G2 A4 | B3 A G F3- | %11
 F G2 A4 B- | B2 A G4 F | E F4 G3- | G4- G z3 | z4 B4- | B4 B4 | B4 A4- | A4 z4 | A4 c4- | %20
 c2 d2 e4 | f4 e4 | g6 f2 | d4 c3 d | e2 f2 g2 e2 | f2 e3 d d2- | d2 c2 d4 | f4 e2 d2- | %28
 d2 cB A4- | A4 B4 | A2 B2 c2 d2- | d2 cB cBAG | A4 G4 | g6 fe | f2 g3 fed- | d3 e4 f- | %36
 f d4 cBA- | A2 B c2 d3 | c B4 A2 B- | B7 z | z3 B4 A- | A3 A4 G- | G3 G4 F- | F3 F4 G- | %44
 G d4 cBc | BAG F3 GA- | A B2 c2 d3 | c B2 A2 B3 | A G4 F2 G- | G7 z |] %50
V:2
 D8 | D4 D4 | G,8 | z8 | D4 E4 | A4 F4 | G6 D2- | D4 D4- | D2 B,2 C2 D2- | D4 F4 | D4 C2 D2- | %11
 DC A,4 B,2- | B,4 G,2 B,2- | B,4 C2 D2- | D2 z2 F4 | E4 D4 | A6 GF | E4 C4- | C4 E4 | D8 | E6 D2 | %21
 C2 E2 D2 E2- | EF G2 A4 | F4 D4 | D8 | G,4 D2 B,2 | A,2 G,4 B,2 | C2 E2 D4 | D8 | z2 D4 D2- | %30
 D2 B,2 C2 D2- | D2 C4 B,2- | B,2 B,4 C2- | C4 B,2 D2- | D2 F4 E2 | D4 B,2 C2- | C2 D4 z2 | %37
 D4 D4- | D4 z2 D2- | D2 D4 G2- | G2 E4 F2 | A4 G2 E2 | D2 B,C DE F2 | B,3 C D4 | D4 D4- | D4 z4 | %46
 z8 | z8 | z8 | z8 |] %50
V:3
 G8- | G4 B4- | B2 A2 G4 | F4 G4 | A6 GF | E2 D2 E4 | D4 G4- | G2 FE F4 | G6 FE | D4 B,2 C2 | %10
 D4 B,2 C2 | D4 G,4 | G,8- | G,4 G4- | G8 | F6 D2- | D2 F6- | F2 E4 A2- | A6 A2- | A2 G6- | %20
 G2 G4 G2- | G2 A6- | A2 G4 F2 | G3 F D2 E2 | D8 | G4 G4 | F4 G4 | F2 G2 A2 B2- | B2 AG AGFE | %29
 F4 GA B2- | B6 A2- | A2 A4 z2 | G6 FE | D6 E2 | F2 ED C2 F2- | F2 D2 C4 | B,4 G,2 G2- | %37
 G2 F2 G2 D2- | D2 E2 F2 EF | G4 B4 | A4 A4 | G3 F D4 | C4 D4 | z2 D2 C2 F2- | F2 G2 F2 D2- | %45
 DC B,2 A,4 | G,4 z4 | z8 | z8 | z8 |] %50
V:4
 G,8 | B,8 | A,8 | B,8 | G,8 | D8 | G,6 A,2 | B,3 A, G,2 F,2 | D,8 | E,8 | D,8 | D8 | G,8 | %13
 D6 B,2 | C4 D4 | A,8 | C8 | B,8 | A,3 B, C2 D2 | E2 C2 D3 C | D2 B,2 A,4 | B,8 | G,8 | D,8 | G,8 | %25
 B,8 | C8 | D8 | G,6 A,2 | B,4 C4 | D2 B,4 A,G, | F,3 G, A,2 B,2- | B,A,B,A, F,4 | G,2 B,4 G,2 | %34
 A,4 G,4 | D,8 | G,8 | D8 | G,2 B,4 A,G, | A,G,F,E, D,3 E, | F,2 G,2 A,2 B,2- | B,A, G,2 D,2 G,2- | %42
 G,4 D,4 | G,8 | z8 | z8 | z8 | z8 | z8 | z8 |] %50

